Obsidian/actions/24s/sort-name.svg

<svg height="24" viewBox="0 0 24 24" width="24" xmlns="http://www.w3.org/2000/svg"><path d="m1 2v4h1v-1h1v1h1v-4zm1 1h1v1h-1zm6 0v4h-3.0625l5.0625 7 5.1875-7h-3.1875v-4zm-7 6v4h3v-1h-2v-2h2v-1z" fill="#bebebe" transform="translate(4 4)"/></svg>

<svg xmlns="http://www.w3.org/2000/svg" width="24" height="24" viewBox="0 0 24 24">
 <defs>
  <style id="current-color-scheme" type="text/css">
   .ColorScheme-Text { color:#bebebe; } .ColorScheme-Highlight { color:#4285f4; }
  </style>
 </defs>
 <path style="fill:currentColor" class="ColorScheme-Text" d="M 1 2 L 1 6 L 2 6 L 2 5 L 3 5 L 3 6 L 4 6 L 4 2 L 1 2 z M 2 3 L 3 3 L 3 4 L 2 4 L 2 3 z M 8 3 L 8 7 L 4.9375 7 L 10 14 L 15.1875 7 L 12 7 L 12 3 L 8 3 z M 1 9 L 1 13 L 4 13 L 4 12 L 2 12 L 2 10 L 4 10 L 4 9 L 1 9 z" transform="translate(4 4)"/>
</svg>
